X:1752894149
T:Shelder Geo
C:Trad.
R:reel
M:4/4
Z:Cam Cross
N:Pairs well with New Rigged Ship
K:D
%
[P:A-part]
|: "D" A2 AG FGAB | "C" =c2 cA "G" BGGB | "D" ABAG FDFG | "G" Addc "D"d2 dB :|
%
[P:B-part]
|: "C" =cdef gagf | "C" e=cgc ecgc | "C" =cdef gage  | "D" ^fdad fdad |
   "C" =cdeg gagf | "C" e=cgc ecce | "C" a^fge fde^c | "D" Add^c d4 :|
%
%%text Chords:
%%text A-part ~ D C/G D G/D :| 
%%text B-part ~ C C C D :| 


%abc-2.1
%%titlefont      Times-Bold 24
%%subtitlefont   Times-Italics 18
%%composerfont   Times-Italics
%%gchordfont     Courier
%%partsfont      Helvetica
%%textfont       Courier
